X:1
T:Title
%%score { 1 | ( 2 3 ) }
L:1/8
Q:1/4=87
M:6/8
K:Eb
V:1 treble nm="Grand Piano"
V:2 bass 
V:3 bass 
V:1
 [GB][_G=A][=GB] [_Ac]2 [C_G=A]/[B,=GB]/ | [B,EG]2 [A,DF] .[G,E]3 | [GB][_G=A][=GB] [_Ac]2 [GB] | %3
w: W.~A.~Spencer * * * * *|||
 [DF]6 | [GB][_G=A][=GB] [_Ac]2 [B,GB] | [B,EG]2 [A,DF] [G,E]2 [G,E] | %6
w: |||
 [G,E]2 [G,E] [B,EG]2 [A,DF] | [G,E]6 | [DF][_D=E][=DF] [DB]2 [DFB] | [DF]2 [CEF] [B,DB]3 | %10
w: ||||
 [EG][DF][EG] [Ge]2 [Bd] | c6 | ccc [ce]dc/c/ | [Ac]2 [GB] [GB]2 [EG] | %14
w: ||||
 [DF][_D=E][=DF] [Fd]2 [_Ec] | [DB]6 | [GB][_G=A][=GB] [_Ac]2 [C_G=A]/[B,=GB]/ | %17
w: |||
 [B,EG]2 [A,DF] .[G,E]3 | [GB][_G=A][=GB] [_Ac]2 [GB] | [DF]6 | [GB][_G=A][=GB] [_Ac]2 [B,GB] | %21
w: ||||
 [B,EG]2 [A,DF] [G,E]2 [G,E] | [G,E]2 [G,E] [B,EG]2 [A,DF] |[M:7/4] [G,E]6 z2 z2 z4 |] %24
w: |||
V:2
 [E,E][E,E][E,E] [E,E]2 E,/E,/ | B,,2 B,, .E,3 | [E,E][E,E][E,E] [E,E]2 [D,B,] | [D,B,]6 | %4
 [E,E][E,E][E,E] [E,E]2 E, | B,,2 B,, E,2 E, | C,2 C, B,,2 B,, | E,6 | %8
 [B,,B,][B,,B,][B,,B,] [B,,F,]2 B,, | B,,2 B,, B,,3 | [E,B,]2 [E,B,] [E,B,]2[K:treble] [G,E] | %11
 [A,EA]6 | [A,EA][A,EA][A,EA] z B[A,EA]/[A,EA]/ | [E,E]2 [E,B,] [E,B,]2 [E,B,] | %14
 [B,,B,]2 [B,,B,] [F,B,]2 [F,=A,] | [B,,B,]6 | [E,E][E,E][E,E] [E,E]2 E,/E,/ | B,,2 B,, .E,3 | %18
 [E,E][E,E][E,E] [E,E]2 [D,B,] | [D,B,]6 | [E,E][E,E][E,E] [E,E]2 E, | B,,2 B,, E,2 E, | %22
 C,2 C, B,,2 B,, |[M:7/4] E,6 z2 z2 z4 |] %24
V:3
 x6 | x6 | x6 | x6 | x6 | x6 | x6 | x6 | x6 | x6 | x5[K:treble] x | x6 | z3 .[A,E]3 | x6 | x6 | %15
 x6 | x6 | x6 | x6 | x6 | x6 | x6 | x6 |[M:7/4] x14 |] %24

